resources/haticons/SVG/pushpin.svg

<!-- Generated by IcoMoon.io -->
<svg version="1.1" xmlns="http://www.w3.org/2000/svg" width="24" height="24" viewBox="0 0 24 24">
<title>pushpin</title>
<path d="M12.75 0l-2.25 2.25 2.25 2.25-5.25 6h-5.25l4.125 4.125-6.375 8.452v0.923h0.923l8.452-6.375 4.125 4.125v-5.25l6-5.25 2.25 2.25 2.25-2.25-11.25-11.25zM10.5 12.75l-1.5-1.5 5.25-5.25 1.5 1.5-5.25 5.25z"></path>
</svg>

<svg xmlns="http://www.w3.org/2000/svg" width="24" height="24"><path d="M12.75 0L10.5 2.25l2.25 2.25-5.25 6H2.25l4.125 4.125L0 23.077V24h.923l8.452-6.375L13.5 21.75V16.5l6-5.25 2.25 2.25L24 11.25 12.75 0zM10.5 12.75L9 11.25 14.25 6l1.5 1.5-5.25 5.25z"/></svg>
